images_files/otherVG/facebook.svg

<svg width="25" height="25" viewBox="0 0 25 25" fill="none" xmlns="http://www.w3.org/2000/svg">
<path d="M25 12.5764C25 5.63064 19.4036 0 12.5 0C5.59644 0 0 5.63064 0 12.5764C0 18.8536 4.57109 24.0565 10.5469 25V16.2118H7.37305V12.5764H10.5469V9.80566C10.5469 6.6537 12.413 4.91265 15.2683 4.91265C16.6359 4.91265 18.0664 5.15829 18.0664 5.15829V8.25326H16.4902C14.9374 8.25326 14.4531 9.22267 14.4531 10.2172V12.5764H17.9199L17.3657 16.2118H14.4531V25C20.429 24.0565 25 18.8536 25 12.5764Z" fill="#2E3E40"/>
</svg>

<svg xmlns="http://www.w3.org/2000/svg" width="25" height="25" fill="none" xmlns:v="https://vecta.io/nano"><path d="M25 12.576C25 5.631 19.404 0 12.5 0S0 5.631 0 12.576C0 18.854 4.571 24.057 10.547 25v-8.788H7.373v-3.635h3.174V9.806c0-3.152 1.866-4.893 4.721-4.893a19.11 19.11 0 0 1 2.798.246v3.095H16.49c-1.553 0-2.037.969-2.037 1.964v2.359h3.467l-.554 3.635h-2.913V25C20.429 24.057 25 18.854 25 12.576z" fill="#2e3e40"/></svg>
